dist/images/nav-support.svg

<svg width="24" height="24" viewBox="0 0 24 24" fill="none" xmlns="http://www.w3.org/2000/svg">
<path d="M22.2133 21.2651C21.5651 19.3507 20.7583 16.9219 17.6251 16.9219H15.9285C16.4351 16.5166 16.8947 16.0556 17.257 15.5156H17.6251C19.5636 15.5156 21.1408 13.9384 21.1408 12V9.1875C21.1408 4.1475 17.0401 0 12.0001 0C6.84529 0 2.7899 4.28503 2.86021 9.30628C2.85937 10.8547 2.85951 10.2917 2.85951 12C2.85951 13.9384 4.43671 15.5156 6.37513 15.5156H6.74324C7.10554 16.0556 7.56515 16.5166 8.07172 16.9219H6.37513C3.24196 16.9219 2.43515 19.3507 1.78696 21.2644C1.32862 22.6171 2.39094 24 3.80572 24H20.1946C21.6141 24 22.6702 22.6121 22.2133 21.2651ZM5.74307 8.48438H4.96888C4.74322 8.48438 4.52985 8.52933 4.32585 8.59528C4.64901 4.36561 8.11621 1.40625 12.0001 1.40625C16.0682 1.40625 19.4051 4.61194 19.705 8.6047C19.4922 8.53233 19.2683 8.48438 19.0314 8.48438H18.2572C17.9022 5.32898 15.2489 2.8125 12.0001 2.8125C8.75137 2.8125 6.09805 5.32898 5.74307 8.48438ZM12.0001 22.1248L9.18735 18.3281H14.8129L12.0001 22.1248ZM12.0001 16.9219C9.28649 16.9219 7.07826 14.7136 7.07826 12V11.2969H9.18763C10.3417 11.2969 11.3588 10.7304 12.0001 9.86892C12.6415 10.7304 13.6586 11.2969 14.8126 11.2969H16.922V12C16.922 12.7577 16.7356 13.4675 16.4283 14.1094H13.4064C13.0177 14.1094 12.7033 14.4239 12.7033 14.8125C12.7033 15.2011 13.0177 15.5109 13.4064 15.5109H15.4338C14.5461 16.3781 13.336 16.9219 12.0001 16.9219Z" fill="#D5DFF2"/>
</svg>

<svg width="24" height="24" fill="none" xmlns="http://www.w3.org/2000/svg"><path d="M22.213 21.265c-.648-1.914-1.455-4.343-4.588-4.343h-1.697a6.357 6.357 0 001.329-1.406h.368A3.52 3.52 0 0021.141 12V9.187C21.14 4.147 17.04 0 12 0 6.844 0 2.79 4.285 2.86 9.306c-.002 1.549-.001.986-.001 2.694a3.52 3.52 0 003.515 3.516h.368c.363.54.822 1 1.329 1.406H6.375c-3.133 0-3.94 2.429-4.588 4.342C1.329 22.617 2.391 24 3.806 24h16.389c1.42 0 2.475-1.388 2.018-2.735zM5.743 8.485H4.97a2.08 2.08 0 00-.643.11c.323-4.23 3.79-7.189 7.674-7.189 4.068 0 7.405 3.206 7.705 7.199a2.082 2.082 0 00-.674-.12h-.774C17.902 5.328 15.25 2.812 12 2.812c-3.249 0-5.902 2.516-6.257 5.671zM12 22.124l-2.813-3.797h5.626L12 22.125zm0-5.203A4.928 4.928 0 017.078 12v-.703h2.11A3.502 3.502 0 0012 9.869a3.503 3.503 0 002.813 1.428h2.109V12a4.86 4.86 0 01-.494 2.11h-3.022a.703.703 0 00-.703.703.7.7 0 00.703.698h2.028A4.905 4.905 0 0112 16.92z" fill=""/></svg>
